ui/StatusQ/src/assets/img/icons/language.svg

<svg fill="none" height="24" viewBox="0 0 24 24" width="24" xmlns="http://www.w3.org/2000/svg"><path clip-rule="evenodd" d="m22 12c0 5.5228-4.4772 10-10 10-5.52285 0-10-4.4772-10-10 0-5.52285 4.47715-10 10-10 5.5228 0 10 4.47715 10 10zm-17.92175-.75c-.29332 0-.52493-.2519-.48071-.5418.38545-2.52796 1.88445-4.68969 3.98081-5.96905.4137-.25247.85144.23516.6572.67918-.64208 1.46778-1.07302 3.3144-1.19802 5.35027-.01648.2684-.23655.4814-.50549.4814zm-.48071 2.0418c-.04422-.2899.18739-.5418.48071-.5418h2.45379c.26894 0 .48901.213.50549.4814.125 2.0359.55594 3.8825 1.19802 5.3503.19424.444-.2435.9316-.6572.6791-2.09637-1.2793-3.59536-3.441-3.98081-5.969zm5.43783-2.0418c-.28399 0-.51165-.2365-.49221-.5199.14052-2.04828.61366-3.83178 1.26295-5.13035.82509-1.65018 1.68739-2.09975 2.19389-2.09975s1.3688.44957 2.1939 2.09975c.6493 1.29857 1.1224 3.08207 1.2629 5.13035.0195.2834-.2082.5199-.4922.5199zm6.42143 2.0199c.0195-.2834-.2082-.5199-.4922-.5199h-5.92923c-.28399 0-.51165.2365-.49221.5199.14052 2.0483.61366 3.8318 1.26295 5.1303.82509 1.6502 1.68739 2.0998 2.19389 2.0998s1.3688-.4496 2.1939-2.0998c.6493-1.2985 1.1224-3.082 1.2629-5.1303zm2.0112-2.0199c-.269 0-.4891-.213-.5055-.4814-.125-2.03587-.556-3.88249-1.198-5.35027-.1943-.44403.2434-.93165.6571-.67918 2.0964 1.27936 3.5954 3.44109 3.9809 5.96905.0442.2899-.1874.5418-.4808.5418zm2.9345 2.0418c.0442-.2899-.1874-.5418-.4808-.5418h-2.4537c-.269 0-.4891.213-.5055.4814-.125 2.0359-.556 3.8825-1.198 5.3503-.1943.444.2434.9316.6571.6791 2.0964-1.2793 3.5954-3.441 3.9809-5.969z" fill="#000" fill-rule="evenodd"/></svg>

<svg width="24" height="24" viewBox="0 0 24 24" fill="none" xmlns="http://www.w3.org/2000/svg">
<path fill-rule="evenodd" clip-rule="evenodd" d="M22 12C22 17.5228 17.5228 22 12 22C6.47715 22 2 17.5228 2 12C2 6.47715 6.47715 2 12 2C17.5228 2 22 6.47715 22 12ZM4.07825 11.25C3.78493 11.25 3.55332 10.9981 3.59754 10.7082C3.98299 8.18024 5.48199 6.01851 7.57835 4.73915C7.99205 4.48668 8.42979 4.97431 8.23555 5.41833C7.59347 6.88611 7.16253 8.73273 7.03753 10.7686C7.02105 11.037 6.80098 11.25 6.53204 11.25H4.07825ZM3.59754 13.2918C3.55332 13.0019 3.78493 12.75 4.07825 12.75H6.53204C6.80098 12.75 7.02105 12.963 7.03753 13.2314C7.16253 15.2673 7.59347 17.1139 8.23555 18.5817C8.42979 19.0257 7.99205 19.5133 7.57835 19.2608C5.48198 17.9815 3.98299 15.8198 3.59754 13.2918ZM9.03537 11.25C8.75138 11.25 8.52372 11.0135 8.54316 10.7301C8.68368 8.68182 9.15682 6.89832 9.80611 5.59975C10.6312 3.94957 11.4935 3.5 12 3.5C12.5065 3.5 13.3688 3.94957 14.1939 5.59975C14.8432 6.89832 15.3163 8.68182 15.4568 10.7301C15.4763 11.0135 15.2486 11.25 14.9646 11.25H9.03537ZM15.4568 13.2699C15.4763 12.9865 15.2486 12.75 14.9646 12.75H9.03537C8.75138 12.75 8.52372 12.9865 8.54316 13.2699C8.68368 15.3182 9.15682 17.1017 9.80611 18.4002C10.6312 20.0504 11.4935 20.5 12 20.5C12.5065 20.5 13.3688 20.0504 14.1939 18.4002C14.8432 17.1017 15.3163 15.3182 15.4568 13.2699ZM17.468 11.25C17.199 11.25 16.9789 11.037 16.9625 10.7686C16.8375 8.73273 16.4065 6.88611 15.7645 5.41833C15.5702 4.9743 16.0079 4.48668 16.4216 4.73915C18.518 6.01851 20.017 8.18024 20.4025 10.7082C20.4467 10.9981 20.2151 11.25 19.9217 11.25H17.468ZM20.4025 13.2918C20.4467 13.0019 20.2151 12.75 19.9217 12.75H17.468C17.199 12.75 16.9789 12.963 16.9625 13.2314C16.8375 15.2673 16.4065 17.1139 15.7645 18.5817C15.5702 19.0257 16.0079 19.5133 16.4216 19.2608C18.518 17.9815 20.017 15.8198 20.4025 13.2918Z" fill="black"/>
</svg>
